svgs/thin/dice-d4.svg

<svg xmlns="http://www.w3.org/2000/svg" viewBox="0 0 512 512"><!--! Font Awesome Pro 6.3.0 by @fontawesome - https://fontawesome.com License - https://fontawesome.com/license (Commercial License) Copyright 2023 Fonticons, Inc. --><path d="M512 309.1c0-7.045-2.342-14.15-7.127-20.07l-224-277.1C274.5 3.969 265.2 0 256 0S237.5 3.969 231.1 11.88l-224 277.1C2.342 294.9 0 302 0 309.1c0 9.61 4.358 19.12 12.62 25.43l224 170.1C242.3 509.9 249.2 512 256 512c6.843 0 13.66-2.135 19.37-6.51l224-170.1C507.6 328.2 512 318.7 512 309.1zM247.1 493.3C247.5 493 246.8 493.1 246.3 492.7l-224-170.9c-6.029-4.605-6.29-11.27-6.29-12.62c0-.1288 0 .0288 0 0c0-3.628 1.232-7.236 3.548-10.11l224-277.1c1.215-1.5 2.801-2.527 4.402-3.484V493.3zM496 309.2c0 1.346-.2576 8.015-6.278 12.62l-224.1 170.1c-.4766 .3652-1.156 .2539-1.664 .5586V18.44c1.609 .957 3.195 1.99 4.414 3.492l224 277.2C494.8 301.1 496 305.6 496 309.2C496 309.2 496 309.1 496 309.2z"/></svg>

<svg xmlns="http://www.w3.org/2000/svg" viewBox="0 0 512 512"><!-- Font Awesome Pro 6.0.0-alpha2 by @fontawesome - https://fontawesome.com License - https://fontawesome.com/license (Commercial License) --><path d="M512 309.095C512 302.05 509.681 294.953 504.896 289.031L280.843 11.875C274.437 3.969 265.218 0 256 0S237.563 3.969 231.157 11.875L7.104 289.031C2.319 294.953 0 302.05 0 309.095C0 318.705 4.315 328.22 12.573 334.531L236.626 505.469C242.344 509.844 249.157 512 256 512S269.656 509.844 275.374 505.469L499.427 334.531C507.685 328.22 512 318.705 512 309.095ZM247.989 493.307C247.481 493 246.809 493.113 246.329 492.748L22.287 321.818C15.685 316.775 15.999 309.408 15.999 309.076C15.999 305.448 17.229 301.96 19.545 299.09L243.586 21.947C244.801 20.447 246.387 19.42 247.989 18.463V493.307ZM489.724 321.811L265.652 492.762C265.175 493.127 264.496 493.016 263.988 493.32V18.441C265.597 19.398 267.183 20.432 268.402 21.934L492.451 299.088C494.77 301.96 496.001 305.448 496.001 309.077C496.001 309.408 496.311 316.777 489.724 321.811Z "></path></svg>
